X: 54
T: No_147_The_Eagle_Is_Talking.krn
N: Derived from No_147_The_Eagle_Is_Talking.krn
%%abc-version 2.0
%%abcx-abcm2ps-target-version 5.9.1 (29 Sep 2008)
%%abc-creator hum2abc beta
%%abcx-conversion-date 2019/03/15 08:37:56
%%humdrum-veritas 2197406043
%%humdrum-veritas-data 3402768252
%%linebreak <none>
%%barnumbers 0
L: 1/8
M: 2/4
K: Gb clef=bass
[K:clef=bass][M:2/4]E4 | 
D3/A,/ A,3/D/ | 
D3B, ||  
[M:3/4]A,4A,2 ]|:  
B,A, A,G, G,E, ||  
[M:2/4]G,2G,3/G,/ | 
G,G,E,2 | 
E,3/E,/ E,E, | 
E,2D,2 | 
E,2E,2 ||  
[M:3/4]E,6 ||  
[M:2/4]B,2B,3/B,/ | 
A,3G, | 
G,/E,3/-E,2 ||  
[M:3/4](3G,G,G, (G,E,) G,/E,E,/ ||  
[M:2/4]E,3/E,/ E,E, | 
E,2D,3/D,/ ||  
[M:3/4]E,E,E,2D,2 ||  
[M:2/4]E,2E,2 | 
E,4 :|]  



